!!!!SEGMENT: pl-kk--kk-i-94--001-001_lilius-franciszek--missa-brevissima-kyrie.krn
!!!cenid: 17xx:2632
!!!COM: Lilius, Franciszek
!!!COM-rismID: pe30020509
!!!CDT: ~1600-1657
!!!CNT: Polish
!!!OPR: Missa Brevissima
!!!OTL: Kyrie
!!!OMV: 001
!!!PDT:
!!!AGN: Sacred; Mass
!!!YEC: Copyright 2022 Narodowy Instytut Fryderyka Chopina (https://polishscores.org)
!!!YEM: License CC-BY-4.0 (https://creativecommons.org/licenses/by/4.0)
!!!SMS-siglum: PL-Kk
!!!SMS-shelfmark: Kk.I.94
!!!SMS-variant: Baſsus pro Organo.: PL-Kk Kk.I.94:40
!!!SMS-altvar: Pro Organo: PL-Kk Kk.I.94:34
!!!SMS-shelfwork: 001-001 M
!!!NIFC-rismSourceID: 1001156388
!!!NIFC-rismChildID: 1001156388
!!!NIFC-islandoraID: pl-kk:3195
!!!URL-pdf-islandora: https://repozytorium.nifc.pl/islandora/object/pl-kk:3195/datastream/PDF/view
!!!URL-scan: https://polish.musicsources.pl/pl/lokalizacje/galeria/rekopisy/6153/4 @EN{Scan on Polish Music Sources Website} @PL{Skany w portalu Dziedzictwo Muzyki Polskiej w otwartym dostępie}
!!!IIIF:
!!!ONB-nifc: UWAGA: Części Mszy: 1. Kyrie, 2. Et in terra, 3. Patrem, 4. Sanctus, 5. Agnus Dei.
!!!AIN: 2 alto 2 bass 1 organ 2 soprn 2 tenor 2 violn
!!!key: d:dor
**kern	**fba	**kern	**text	**kern	**text	**kern	**text	**kern	**text	**kern	**text	**kern	**text	**kern	**text	**kern	**text	**kern	**text	**kern	**text
*	*	*	*	*	*	*group2	*	*group2	*	*group2	*	*group2	*	*group1	*	*group1	*	*group1	*	*group1	*
*part11	*part11	*part10	*part10	*part9	*part9	*part8	*part8	*part7	*part7	*part6	*part6	*part5	*part5	*part4	*part4	*part3	*part3	*part2	*part2	*part1	*part1
*staff11	*staff1	*staff10	*staff10	*staff9	*staff9	*staff8	*staff8	*staff7	*staff7	*staff6	*staff6	*staff5	*staff5	*staff4	*staff4	*staff3	*staff3	*staff2	*staff2	*staff1	*staff1
*IGcont	*	*	*	*	*	*IGcoro	*	*IGcoro	*	*IGcoro	*	*IGcoro	*	*IGcoro	*	*IGcoro	*	*IGcoro	*	*IGcoro	*
*ICklav	*	*ICstr	*	*ICstr	*	*ICvox	*	*ICvox	*	*ICvox	*	*ICvox	*	*ICvox	*	*ICvox	*	*ICvox	*	*ICvox	*
*Iorgan	*	*Ivioln	*	*Ivioln	*	*Ibass	*	*Itenor	*	*Itenor	*	*Ialto	*	*Ibass	*	*Ialto	*	*Isoprn	*	*Isoprn	*
*I"Baſsus pro Organo.	*	*I"Violino 3o.	*	*I"Violino 2do.	*	*I"Baſs(us) 2 Chori	*	*I"Tenor 2d(us) Chori 2di	*	*I"Tenor 1mus 2di Chori	*	*I"Altus 2di Chori.	*	*I"Baſsus 1mi Chori	*	*I"Altus Primi Chori	*	*I"Cant(us) 2d(us). Chori Imi.	*	*I"Cant(us) I Primi Chori	*
*I'org	*	*I'vl 3	*	*I'vl 2	*	*I'Coro 2 B 2	*	*I'Coro 2 T 2	*	*I'Coro 2 T 1	*	*I'Coro 2 A 2	*	*I'Coro 1 B 1	*	*I'Coro 1 A 1	*	*I'Coro 1 S 2	*	*I'Coro 1 S 1	*
*clefC1	*	*clefC4	*	*clefC4	*	*clefF4	*	*clefC4	*	*clefC4	*	*clefC3	*	*clefC4	*	*clefC3	*	*clefC1	*	*clefC1	*
*k[]	*	*k[]	*	*k[]	*	*k[]	*	*k[]	*	*k[]	*	*k[]	*	*k[]	*	*k[]	*	*k[]	*	*k[]	*
*d:dor	*	*d:dor	*	*d:dor	*	*d:dor	*	*d:dor	*	*d:dor	*	*d:dor	*	*d:dor	*	*d:dor	*	*d:dor	*	*d:dor	*
*M3/2	*	*M3/2	*	*M3/2	*	*M3/2	*	*M3/2	*	*M3/2	*	*M3/2	*	*M3/2	*	*M3/2	*	*M3/2	*	*M3/2	*
*	*	*	*	*	*	*all\right	*	*	*	*all\right	*	*	*	*all\right	*	*all\right	*	*	*	*all\right	*
=1-	=1-	=1-	=1-	=1-	=1-	=1-	=1-	=1-	=1-	=1-	=1-	=1-	=1-	=1-	=1-	=1-	=1-	=1-	=1-	=1-	=1-
!	!	!LO:TX:t=P:problem=partia tenoru 2, dopisane "Violino 3o."	!	!LO:TX:t=P:problem=partia tenoru 1, dopisane "Violino 2do."	!	!	!	!	!	!	!	!	!	!	!	!	!	!	!	!	!
1d	.	00.r	.	00.r	.	00.r	.	00.r	.	00.r	.	00.r	.	00.r	.	0.r	.	00.r	.	1d	Ky-
!LO:TX:t=P:problem=kreska pseudotaktowa	!	!	!	!	!	!	!	!	!	!	!	!	!	!	!	!	!	!	!	!LO:TX:t=P:problem=kreska pseudotaktowa	!
2d/	.	.	.	.	.	.	.	.	.	.	.	.	.	.	.	.	.	.	.	2d/	-ri-
=2-	=2-	=2-	=2-	=2-	=2-	=2-	=2-	=2-	=2-	=2-	=2-	=2-	=2-	=2-	=2-	=2-	=2-	=2-	=2-	=2-	=2-
!	!	!	!	!	!	!	!	!	!	!	!	!	!	!	!	!LO:TX:t=P:problem=kreska pseudotaktowa	!	!	!	!	!
1a	.	.	.	.	.	.	.	.	.	.	.	.	.	.	.	.	.	.	.	1a	-e
*2\right	*	*	*	*	*	*	*	*	*	*	*	*	*	*	*	*	*	*	*	*2\right	*
!LO:TX:t=P:problem=kreska pseudotaktowa	!	!	!	!	!	!	!	!	!	!	!	!	!	!	!	!	!	!	!	!LO:TX:t=P:problem=kreska pseudotaktowa	!
2b\	.	.	.	.	.	.	.	.	.	.	.	.	.	.	.	.	.	.	.	2b\	.
*clefC3	*	*	*	*	*	*	*	*	*	*	*	*	*	*	*	*	*	*	*	*	*
=3-	=3-	=3-	=3-	=3-	=3-	=3-	=3-	=3-	=3-	=3-	=3-	=3-	=3-	=3-	=3-	=3-	=3-	=3-	=3-	=3-	=3-
1A	.	.	.	.	.	.	.	.	.	.	.	.	.	.	.	1A	Ky-	.	.	2.cc\	e-
.	.	.	.	.	.	.	.	.	.	.	.	.	.	.	.	.	.	.	.	4b\	.
!LO:TX:t=P:problem=kreska pseudotaktowa	!	!	!	!	!	!	!	!	!	!	!	!	!	!	!	!	!	!	!	!	!
2A/	.	.	.	.	.	.	.	.	.	.	.	.	.	.	.	2A/	-ri-	.	.	4a\	.
!	!	!	!	!	!	!	!	!	!	!	!	!	!	!	!	!	!	!	!	!LO:TX:t=P:problem=kreska pseudotaktowa	!
.	.	.	.	.	.	.	.	.	.	.	.	.	.	.	.	.	.	.	.	4g/	.
=4-	=4-	=4-	=4-	=4-	=4-	=4-	=4-	=4-	=4-	=4-	=4-	=4-	=4-	=4-	=4-	=4-	=4-	=4-	=4-	=4-	=4-
!	!	!	!	!	!	!	!	!	!	!	!	!	!	!LO:TX:t=P:problem=kreska pseudotaktowa	!	!	!	!	!	!	!
1d	.	.	.	.	.	.	.	.	.	.	.	.	.	.	.	1d	-e	.	.	1f	.
*	*	*	*	*	*	*	*	*	*	*	*	*	*	*	*	*2\right	*	*	*	*	*
!LO:TX:t=P:problem=kreska pseudotaktowa	!	!	!	!	!	!	!	!	!	!	!	!	!	!	!	!LO:TX:t=P:problem=kreska pseudotaktowa	!	!	!	!LO:TX:t=P:problem=kreska pseudotaktowa	!
2e\	.	.	.	.	.	.	.	.	.	.	.	.	.	.	.	2e\	.	.	.	2g/	.
*clefC4	*	*	*	*	*	*	*	*	*	*	*	*	*	*	*	*	*	*	*	*	*
=5-	=5-	=5-	=5-	=5-	=5-	=5-	=5-	=5-	=5-	=5-	=5-	=5-	=5-	=5-	=5-	=5-	=5-	=5-	=5-	=5-	=5-
1D	.	00.r	.	00.r	.	00.r	.	00.r	.	00.r	.	00.r	.	1D	Ky-	2.f\	.	0.r	.	2.a/	.
.	.	.	.	.	.	.	.	.	.	.	.	.	.	.	.	4e\	.	.	.	4g/	.
!	!	!	!	!	!	!	!	!	!	!	!	!	!	!LO:TX:t=P:problem=kreska pseudotaktowa	!	!LO:TX:t=P:problem=kreska pseudotaktowa	!	!	!	!LO:TX:t=P:problem=kreska pseudotaktowa	!
2D/	.	.	.	.	.	.	.	.	.	.	.	.	.	2D/	-ri-	2d\	.	.	.	2f/	.
=6-	=6-	=6-	=6-	=6-	=6-	=6-	=6-	=6-	=6-	=6-	=6-	=6-	=6-	=6-	=6-	=6-	=6-	=6-	=6-	=6-	=6-
1A	5	.	.	.	.	.	.	.	.	.	.	.	.	1A	-e	1c	e-	.	.	2e/	.
.	6	.	.	.	.	.	.	.	.	.	.	.	.	.	.	.	.	.	.	2f/	.
*	*	*	*	*	*	*	*	*	*	*	*	*	*	*2\right	*	*	*	*	*	*	*
!LO:TX:t=P:problem=kreska pseudotaktowa	!	!	!	!	!	!	!	!	!	!	!	!	!	!LO:TX:t=P:problem=kreska pseudotaktowa	!	!LO:TX:t=P:problem=kreska pseudotaktowa	!	!	!	!LO:TX:t=P:problem=kreska pseudotaktowa, między nutą a kropką	!
2B\	6	.	.	.	.	.	.	.	.	.	.	.	.	2B\	e-	2d\	.	.	.	2.g/	.
=7-	=7-	=7-	=7-	=7-	=7-	=7-	=7-	=7-	=7-	=7-	=7-	=7-	=7-	=7-	=7-	=7-	=7-	=7-	=7-	=7-	=7-
!	!	!	!	!	!	!	!	!	!	!	!	!	!	!	!	!	!	!LO:TX:t=P:problem=kreska pseudotaktowa	!	!	!
2.c\	.	.	.	.	.	.	.	.	.	.	.	.	.	2.c\	.	1e	.	1.r	.	.	.
.	.	.	.	.	.	.	.	.	.	.	.	.	.	.	.	.	.	.	.	4f/	.
.	.	.	.	.	.	.	.	.	.	.	.	.	.	.	.	.	.	.	.	2g/	.
4B\	.	.	.	.	.	.	.	.	.	.	.	.	.	4B\	.	.	.	.	.	.	.
!LO:TX:t=P:problem=kreska pseudotaktowa	!	!	!	!	!	!	!	!	!	!	!	!	!	!LO:TX:t=P:problem=kreska pseudotaktowa	!	!LO:TX:t=P:problem=kreska pseudotaktowa	!	!	!	!LO:TX:t=P:problem=kreska pseudotaktowa	!
2A\	6 #	.	.	.	.	.	.	.	.	.	.	.	.	2A/	.	2f#X\	.	.	.	2a\	.
=8-	=8-	=8-	=8-	=8-	=8-	=8-	=8-	=8-	=8-	=8-	=8-	=8-	=8-	=8-	=8-	=8-	=8-	=8-	=8-	=8-	=8-
!	!	!	!	!	!	!	!	!	!	!LO:TX:t=P:problem=kreska pseudotaktowa	!	!	!	!	!	!	!	!	!	!	!
1G	.	.	.	.	.	.	.	.	.	.	.	.	.	1G	.	2.g\	.	1d	Ky-	1b	-ley-
.	.	.	.	.	.	.	.	.	.	.	.	.	.	.	.	8fny\L	.	.	.	.	.
.	.	.	.	.	.	.	.	.	.	.	.	.	.	.	.	8e\J	.	.	.	.	.
!	!	!	!	!	!	!	!	!	!	!	!	!	!	!LO:TX:t=P:problem=kreska pseudotaktowa	!	!	!	!	!	!	!
2G/	.	.	.	.	.	.	.	.	.	.	.	.	.	2G/	.	4d\	.	2d/	-ri-	2b\	-ſon
!	!	!	!	!	!	!	!	!	!	!	!	!	!	!	!	!LO:TX:t=P:problem=kreska pseudotaktowa	!	!	!	!	!
.	.	.	.	.	.	.	.	.	.	.	.	.	.	.	.	4e\	.	.	.	.	.
!LO:LB:g=original	!	!	!	!	!	!	!	!	!	!	!	!	!	!	!	!	!	!	!	!	!
=9-	=9-	=9-	=9-	=9-	=9-	=9-	=9-	=9-	=9-	=9-	=9-	=9-	=9-	=9-	=9-	=9-	=9-	=9-	=9-	=9-	=9-
1D	.	00.r	.	1D	Ky-	0.r	.	00.r	.	1D	Ky-	00.r	.	2F/	.	1f	.	1a	-e	1dd	Ky-
.	.	.	.	.	.	.	.	.	.	.	.	.	.	2D/	-le-	.	.	.	.	.	.
*	*	*	*	*	*	*	*	*	*	*	*	*	*	*	*	*	*	*2\right	*	*	*
!LO:TX:b:t=T.	!	!	!	!	!	!	!	!	!	!LO:TX:t=P:problem=kreska pseudotaktowa	!	!	!	!LO:TX:t=P:problem=kreska pseudotaktowa	!	!LO:TX:t=P:problem=kreska pseudotaktowa	!	!LO:TX:t=P:problem=kreska pseudotaktowa	!	!	!
2D/	.	.	.	2D/	-ri-	.	.	.	.	2D/	-ri-	.	.	2d\	-y-	2f\	-le-	2b\	.	2dd\	-ri-
=10-	=10-	=10-	=10-	=10-	=10-	=10-	=10-	=10-	=10-	=10-	=10-	=10-	=10-	=10-	=10-	=10-	=10-	=10-	=10-	=10-	=10-
1A	.	.	.	1A	-e	.	.	.	.	1A	-e	.	.	1A	-ſon	1a	-y-	1cc	.	1ee	-e
*	*	*	*	*2\right	*	*	*	*	*	*2\right	*	*	*	*	*	*	*	*	*	*	*
!LO:TX:t=P:problem=kreska pseudotaktowa	!	!	!	!	!	!	!	!	!	!LO:TX:t=P:problem=kreska pseudotaktowa	!	!	!	!LO:TX:t=P:problem=kreska pseudotaktowa	!	!	!	!LO:TX:t=P:problem=kreska pseudotaktowa	!	!	!
2B\	.	.	.	2B\	.	.	.	.	.	2B\	e-	.	.	2r	.	2d\	-ſon	2b\	.	2dd\	.
*clefF4	*	*	*	*	*	*	*	*	*	*	*	*	*	*	*	*	*	*	*	*	*
!	!	!	!	!	!	!	!	!	!	!	!	!	!	!	!	!	!	!	!	!LO:LB:g=original	!
=11-	=11-	=11-	=11-	=11-	=11-	=11-	=11-	=11-	=11-	=11-	=11-	=11-	=11-	=11-	=11-	=11-	=11-	=11-	=11-	=11-	=11-
*	*	*	*	*	*	*	*	*	*	*	*	*	*	*	*ij	*	*ij	*	*	*	*
!	!	!	!	!	!	!	!	!	!	!	!	!	!	!	!	!LO:TX:t=P:problem=kreska pseudotaktowa	!	!	!	!	!
1AA	.	.	.	2.c\	e-	1AA	Ky-	.	.	2.c\	.	.	.	1A	Ky-	1.e	Ky-	2.a\	.	4cc\	e-
.	.	.	.	.	.	.	.	.	.	.	.	.	.	.	.	.	.	.	.	4b\	.
.	.	.	.	.	.	.	.	.	.	.	.	.	.	.	.	.	.	.	.	4cc\	.
.	.	.	.	4B\	.	.	.	.	.	4B\	.	.	.	.	.	.	.	4b\	.	4dd\	.
!LO:TX:t=P:problem=kreska pseudotaktowa	!	!	!	!	!	!LO:TX:t=P:problem=kreska pseudotaktowa	!	!	!	!	!	!	!	!LO:TX:t=P:problem=kreska pseudotaktowa	!	!	!	!	!	!LO:TX:t=P:problem=kreska pseudotaktowa	!
2AA/	.	.	.	2.A/	.	2AA/	-ri-	.	.	2.A\	.	.	.	2A/	-ri-	.	.	4cc\	.	2ee\	.
!	!	!	!	!	!	!	!	!	!	!	!	!	!	!	!	!	!	!LO:TX:t=P:problem=kreska pseudotaktowa	!	!	!
.	.	.	.	.	.	.	.	.	.	.	.	.	.	.	.	.	.	4b\	.	.	.
=12-	=12-	=12-	=12-	=12-	=12-	=12-	=12-	=12-	=12-	=12-	=12-	=12-	=12-	=12-	=12-	=12-	=12-	=12-	=12-	=12-	=12-
!	!	!	!	!	!	!	!	!	!	!	!	!LO:TX:t=P:problem=kreska pseudotaktowa	!	!	!	!	!	!	!	!	!
1D	.	.	.	.	.	1D	-e	.	.	.	.	.	.	2D/	-e	1.f	-ri-	1a	.	2.dd\	.
.	.	.	.	4G/	.	.	.	.	.	4G/	.	.	.	.	.	.	.	.	.	.	.
.	.	.	.	2F/	.	.	.	.	.	2F/	.	.	.	2d\	e-	.	.	.	.	.	.
.	.	.	.	.	.	.	.	.	.	.	.	.	.	.	.	.	.	.	.	4cc\	.
*	*	*	*	*	*	*2\right	*	*	*	*	*	*	*	*	*	*	*	*	*	*	*
!LO:TX:t=P:problem=kreska pseudotaktowa	!	!	!	!	!	!LO:TX:t=P:problem=kreska pseudotaktowa	!	!	!	!LO:TX:t=P:problem=kreska pseudotaktowa	!	!	!	!LO:TX:t=P:problem=kreska pseudotaktowa	!	!	!	!LO:TX:t=P:problem=kreska pseudotaktowa	!	!LO:TX:t=P:problem=kreska pseudotaktowa	!
2E\	.	.	.	2G/	.	2E\	e-	.	.	2G/	.	.	.	2G/	.	.	.	2g/	.	2b\	.
!	!	!	!	!	!	!	!	!	!	!	!	!	!	!	!	!LO:LB:g=original	!	!	!	!	!
=13-	=13-	=13-	=13-	=13-	=13-	=13-	=13-	=13-	=13-	=13-	=13-	=13-	=13-	=13-	=13-	=13-	=13-	=13-	=13-	=13-	=13-
2.F\	.	0.r	.	1c	.	2.F\	.	0.r	.	1c	.	1A	Ky-	1A	.	2c/	-e	1f	e-	1a	-ley-
.	.	.	.	.	.	.	.	.	.	.	.	.	.	.	.	2c/	e-	.	.	.	.
4E\	.	.	.	.	.	4E\	.	.	.	.	.	.	.	.	.	.	.	.	.	.	.
!	!	!	!	!	!	!LO:TX:t=P:problem=kreska pseudotaktowa, między nutą a kropką	!	!	!	!	!	!LO:TX:t=P:problem=kreska pseudotaktowa	!	!	!	!LO:TX:t=P:problem=kreska pseudotaktowa, między nutą a kropką	!	!LO:TX:t=P:problem=kreska pseudotaktowa	!	!LO:TX:t=P:problem=kreska pseudotaktowa	!
2.D/	.	.	.	4d\	-le-	2.D/	.	.	.	4d\	.	2A/	-ri-	2.D/	.	(2.f\	-le-	2f/	-lei-	2a\	-ſon
.	.	.	.	4e\	.	.	.	.	.	4e\	.	.	.	.	.	.	.	.	.	.	.
=14-	=14-	=14-	=14-	=14-	=14-	=14-	=14-	=14-	=14-	=14-	=14-	=14-	=14-	=14-	=14-	=14-	=14-	=14-	=14-	=14-	=14-
!	!	!	!	!	!	!	!	!LO:TX:t=P:problem=kreska pseudotaktowa	!	!	!	!	!	!	!	!	!	!	!	!	!
.	.	.	.	2.f\	.	.	.	.	.	2.f\	.	1d	-e	.	.	.	.	2f/	-son	00.r	.
4C/	.	.	.	.	.	4C/	.	.	.	.	.	.	.	4E/	.	4e\)	.	.	.	.	.
2BB-X/	.	.	.	.	.	2BB-X/	-le-	.	.	.	.	.	.	2F/	.	4d\	.	2r	.	.	.
.	.	.	.	8e\L	-i-	.	.	.	.	8e\L	.	.	.	.	.	8e\L	.	.	.	.	.
.	.	.	.	8d\J	.	.	.	.	.	8d\J	.	.	.	.	.	8f\J	.	.	.	.	.
*	*	*	*	*	*	*	*	*	*	*	*	*2\right	*	*	*	*	*	*	*	*	*
!	!	!	!	!	!	!	!	!	!	!LO:SIC:v:s=2c#\	!	!	!	!	!	!LO:TX:b:t=P:problem=# below	!	!	!	!	!
!LO:TX:t=P:problem=kreska pseudotaktowa	!	!	!	!LO:SIC:v:s=2c#\	!	!LO:TX:t=P:problem=kreska pseudotaktowa	!	!	!	!LO:TX:t=P:problem=kreska pseudotaktowa	!	!LO:TX:t=P:problem=kreska pseudotaktowa	!	!LO:TX:t=P:problem=kreska pseudotaktowa	!	!LO:TX:t=P:problem=kreska pseudotaktowa	!	!LO:TX:t=P:problem=kreska pseudotaktowa	!	!	!
2AA/	#	.	.	2c\	.	2AA/	-ij-	.	.	2c\	.	2e\	[e]-	2A/	-ley-	2c#X/	-y-	2a\	e-	.	.
!	!	!	!	!	!	!	!	!	!	!	!	!	!	!LO:LB:g=original	!	!	!	!	!	!	!
=15-	=15-	=15-	=15-	=15-	=15-	=15-	=15-	=15-	=15-	=15-	=15-	=15-	=15-	=15-	=15-	=15-	=15-	=15-	=15-	=15-	=15-
2DD/	-	1D	ky-	1d	-son	2DD/	-son	1D	Ky-	1d	-ley-	2.f\	-le-	1d	-ſon	1f	-ſon	1a	-le-	.	.
!LO:TX:b:i:t=Ch. 2.	!	!	!	!	!	!	!	!	!	!	!	!	!	!	!	!	!	!	!	!	!
2D/	.	.	.	.	.	2D/	.	.	.	.	.	.	.	.	.	.	.	.	.	.	.
.	.	.	.	.	.	.	.	.	.	.	.	4e\	.	.	.	.	.	.	.	.	.
!LO:N:acc=#	!	!	!	!	!	!LO:TX:t=P:problem=kreska pseudotaktowa	!	!LO:TX:t=P:problem=kreska pseudotaktowa	!	!LO:TX:t=P:problem=kreska pseudotaktowa	!	!LO:TX:t=P:problem=kreska pseudotaktowa	!	!LO:TX:t=P:problem=kreska pseudotaktowa	!	!LO:TX:t=P:problem=kreska pseudotaktowa	!	!LO:TX:t=P:problem=kreska pseudotaktowa	!	!	!
2BBn/	6	2D/	-rie	2d\	.	2BBn,</	.	2D/	-ri-	2d\	-ſon	2d\	-i-	2r	.	2r	.	2g#X/	-i-	.	.
!	!	!	!	!	!	!	!	!	!	!	!	!	!	!	!	!	!	!LO:LB:g=original	!	!	!
=16-	=16-	=16-	=16-	=16-	=16-	=16-	=16-	=16-	=16-	=16-	=16-	=16-	=16-	=16-	=16-	=16-	=16-	=16-	=16-	=16-	=16-
*	*	*	*	*	*	*	*	*	*	*	*ij	*	*	*	*	*	*	*	*	*	*
1AA	.	1A	.	2.c\	.	1AA	ky-	1A	-e	2.c\	Ky-	1.e	-son	0.r	.	0.r	.	1a	-son	.	.
.	.	.	.	8B\L	.	.	.	.	.	8B\L	-ri-	.	.	.	.	.	.	.	.	.	.
.	.	.	.	8A\J	.	.	.	.	.	8A\J	.	.	.	.	.	.	.	.	.	.	.
!	!	!LO:SIC:v:s=2B/	!	!	!	!	!	!LO:SIC:v:s=2B/	!	!	!	!	!	!	!	!	!	!	!	!	!
!LO:TX:t=P:problem=kreska pseudotaktowa	!	!	!	!LO:TX:b:t=P:problem=# below	!	!LO:TX:t=P:problem=kreska pseudotaktowa	!	!LO:TX:t=P:problem=kreska pseudotaktowa	!	!LO:TX:b:t=P:problem=# below	!	!	!	!	!	!	!	!LO:TX:t=P:problem=kreska pseudotaktowa	!	!	!
2EE/	.	2A/	.	2G#X/	.	2E\	-ri-	2A/	e-	2G#X/	-e	.	.	.	.	.	.	2r	.	.	.
!	!	!	!	!	!	!	!	!	!	!LO:LB:g=original	!	!	!	!	!	!	!	!	!	!	!
=17-	=17-	=17-	=17-	=17-	=17-	=17-	=17-	=17-	=17-	=17-	=17-	=17-	=17-	=17-	=17-	=17-	=17-	=17-	=17-	=17-	=17-
*	*	*2\right	*	*	*	*	*	*2\right	*	*	*	*	*	*	*	*	*	*	*	*	*
!	!	!	!	!	!	!	!	!	!	!	!	!	!	!	!	!	!	!LO:TX:t=P:problem=kreska pseudotaktowa	!	!	!
!	!	!	!	!	!	!	!	!	!	!	!	!	!	!	!	!	!	!LO:TX:a:t=1.	!	!	!
2.AA/	.	2.c\	e-	4A\	.	2.AA/	-e	2.c\	-le-	4A\	e-	2.e/	Ky-	.	.	.	.	1.r	.	.	.
.	.	.	.	4B\	.	.	.	.	.	4B\	.	.	.	.	.	.	.	.	.	.	.
.	.	.	.	4c\	.	.	.	.	.	4c\	.	.	.	.	.	.	.	.	.	.	.
4BB/	.	4B\	.	4d\	.	4BB/	.	4B\	.	4d\	.	4d/	-ri-	.	.	.	.	.	.	.	.
!LO:TX:t=P:problem=kreska pseudotaktowa	!	!	!	!	!	!LO:TX:t=P:problem=kreska pseudotaktowa	!	!LO:TX:t=P:problem=kreska pseudotaktowa	!	!LO:TX:t=P:problem=kreska pseudotaktowa	!	!LO:TX:t=P:problem=kreska pseudotaktowa	!	!	!	!	!	!	!	!	!
2C/	.	2A/	-le-	2e\	.	2C/	.	2A/	.	2e\	.	2c/	-e	.	.	.	.	.	.	.	.
!	!	!	!	!	!	!LO:LB:g=original	!	!	!	!	!	!	!	!	!	!	!	!	!	!	!
=18-	=18-	=18-	=18-	=18-	=18-	=18-	=18-	=18-	=18-	=18-	=18-	=18-	=18-	=18-	=18-	=18-	=18-	=18-	=18-	=18-	=18-
!	!	!	!	!	!	!	!	!	!	!	!	!	!	!LO:TX:t=P:problem=kreska pseudotaktowa	!	!LO:TX:t=P:problem=kreska pseudotaktowa	!	!	!	!	!
2D/	.	1A	-i-	2d\	.	2D/	e-	1A	.	2d\	.	2f\	e-	1.r	.	1.r	.	2r	.	0.r	.
!LO:TX:t=P:problem=kreska pseudotaktowa	!	!	!	!	!	!	!	!	!	!	!	!	!	!	!	!	!	!	!	!	!
1E	4	.	.	2.B\	.	2.E\	-le-	.	.	2.B\	-le-	2.e\	-le-	.	.	.	.	2r	.	.	.
!	!	!	!	!	!	!	!	!LO:SIC:v:s=2G#	!	!	!	!	!	!	!	!	!	!	!	!	!
!	!	!LO:TX:b:t=P:problem=# below	!	!	!	!	!	!LO:TX:t=P:problem=kreska pseudotaktowa	!	!	!	!	!	!	!	!	!	!	!	!	!
.	3	2G#X/	-son	.	.	.	.	2G/	-i-	.	.	.	.	.	.	.	.	2.e/	Ky-	.	.
.	.	.	.	4B\	.	4E\	-ij-	.	.	4B\	-y-	4e\	-i-	.	.	.	.	.	.	.	.
=19-	=19-	=19-	=19-	=19-	=19-	=19-	=19-	=19-	=19-	=19-	=19-	=19-	=19-	=19-	=19-	=19-	=19-	=19-	=19-	=19-	=19-
!	!	!	!	!	!	!	!	!	!	!	!	!LO:TX:t=P:problem=kreska pseudotaktowa	!	!	!	!	!	!	!	!	!
!	!	!LO:N:vis=1	!	!	!	!	!	!LO:TX:t=P:problem=kreska pseudotaktowa	!	!LO:TX:t=P:problem=kreska pseudotaktowa	!	!LO:N:vis=1	!	!	!	!	!	!	!	!	!
1AA	.	1.A	.	1c	.	1AA	-son	1.A	-son	1.c	-ſon	1.e	-son	1A	Ky-	1e	Ky-	.	.	.	.
.	.	.	.	.	.	.	.	.	.	.	.	.	.	.	.	.	.	4e/	-ri-	.	.
*	*	*	*	*	*	*	*	*	*	*	*Xij	*	*	*	*	*	*	*col	*	*	*
!	!	!	!	!	!	!	!	!	!	!	!	!	!	!	!	!	!	!LO:TX:t=P:problem=kreska pseudotaktowa	!	!	!
.	.	.	.	.	.	.	.	.	.	.	.	.	.	.	.	.	.	1a	-e	.	.
*clefC4	*	*	*	*	*	*	*	*	*	*	*	*	*	*	*	*	*	*	*	*	*
!LO:TX:t=P:problem=kreska pseudotaktowa	!	!	!	!	!	!LO:TX:t=P:problem=kreska pseudotaktowa	!	!	!	!	!	!	!	!LO:TX:t=P:problem=kreska pseudotaktowa	!	!LO:TX:t=P:problem=kreska pseudotaktowa	!	!	!	!	!
!LO:LB:g=original	!	!	!	!	!	!	!	!	!	!	!	!	!	!	!	!	!	!	!	!	!
2A/	.	.	.	2r	.	2r	.	.	.	.	.	.	.	2A/	-ri-	2e\	-ri-	.	.	.	.
*	*	*	*	*	*	*	*	*	*	*	*	*	*	*	*	*	*	*Xcol	*	*	*
!	!	!	!	!LO:LB:g=original	!	!	!	!	!	!	!	!	!	!	!	!	!	!	!	!	!
=20-	=20-	=20-	=20-	=20-	=20-	=20-	=20-	=20-	=20-	=20-	=20-	=20-	=20-	=20-	=20-	=20-	=20-	=20-	=20-	=20-	=20-
!LO:TX:b:i:t=a 4.	!	!	!	!	!	!	!	!	!	!	!	!	!	!	!	!	!	!	!	!LO:TX:t=P:problem=kreska pseudotaktowa	!
1d	.	00.r	.	00.r	.	00.r	.	00.r	.	00.r	.	00.r	.	1d	-e	1f	-e	2a\	e-	1.r	.
.	.	.	.	.	.	.	.	.	.	.	.	.	.	.	.	.	.	2b\	.	.	.
!LO:TX:t=P:problem=kreska pseudotaktowa	!	!	!	!	!	!	!	!	!	!	!	!	!	!LO:TX:t=P:problem=kreska pseudotaktowa	!	!LO:TX:t=P:problem=kreska pseudotaktowa	!	!LO:TX:t=P:problem=kreska pseudotaktowa, między nutą a kropką	!	!	!
2e\	.	.	.	.	.	.	.	.	.	.	.	.	.	2e\	e-	2g\	e-	2.cc\	.	.	.
=21-	=21-	=21-	=21-	=21-	=21-	=21-	=21-	=21-	=21-	=21-	=21-	=21-	=21-	=21-	=21-	=21-	=21-	=21-	=21-	=21-	=21-
*	*	*	*	*	*	*	*	*	*	*	*	*	*	*	*	*	*	*	*	*	*ij
2.f\	.	.	.	.	.	.	.	.	.	.	.	.	.	2.f\	-ley-	2.a\	.	.	.	1a	Ky-
.	.	.	.	.	.	.	.	.	.	.	.	.	.	.	.	.	.	4b,\	.	.	.
!	!	!	!	!	!	!	!	!	!	!	!	!	!	!	!	!	!	!LO:TX:a:B:t=K.	!	!	!
.	.	.	.	.	.	.	.	.	.	.	.	.	.	.	.	.	.	2a\	.	.	.
4e\	.	.	.	.	.	.	.	.	.	.	.	.	.	4e\	.	4g\	.	.	.	.	.
!	!	!	!	!	!	!	!	!	!	!	!	!	!	!	!	!LO:TX:t=P:problem=kreska pseudotaktowa, między nutą a kropką	!	!	!	!LO:TX:t=P:problem=kreska pseudotaktowa	!
2.d\	.	.	.	.	.	.	.	.	.	.	.	.	.	2.d\	.	2.f\	.	4dd\	.	2a\	-ri-
!	!	!	!	!	!	!	!	!	!	!	!	!	!	!	!	!	!	!LO:TX:t=P:problem=kreska pseudotaktowa	!	!	!
.	.	.	.	.	.	.	.	.	.	.	.	.	.	.	.	.	.	4ee\	.	.	.
=22-	=22-	=22-	=22-	=22-	=22-	=22-	=22-	=22-	=22-	=22-	=22-	=22-	=22-	=22-	=22-	=22-	=22-	=22-	=22-	=22-	=22-
.	.	.	.	.	.	.	.	.	.	.	.	.	.	.	.	.	.	2.ff\	.	1dd	-e
4c\	.	.	.	.	.	.	.	.	.	.	.	.	.	4c\	.	4e\	.	.	.	.	.
2B-X\	.	.	.	.	.	.	.	.	.	.	.	.	.	2B-X\	.	2d\	.	.	.	.	.
.	.	.	.	.	.	.	.	.	.	.	.	.	.	.	.	.	.	8ee\L	.	.	.
.	.	.	.	.	.	.	.	.	.	.	.	.	.	.	.	.	.	8dd\J	.	.	.
!LO:TX:t=P:problem=kreska pseudotaktowa	!	!	!	!	!	!	!	!	!	!	!	!	!	!LO:TX:t=P:problem=kreska pseudotaktowa	!	!LO:TX:t=P:problem=kreska pseudotaktowa, między nutą a kropką	!	!LO:TX:t=P:problem=kreska pseudotaktowa	!	!LO:TX:t=P:problem=kreska pseudotaktowa	!
2A/	.	.	.	.	.	.	.	.	.	.	.	.	.	2A/	-ſon	2.a\	.	2cc#X\	.	2ee\	.
=23-	=23-	=23-	=23-	=23-	=23-	=23-	=23-	=23-	=23-	=23-	=23-	=23-	=23-	=23-	=23-	=23-	=23-	=23-	=23-	=23-	=23-
2.D/	.	.	.	.	.	.	.	.	.	.	.	.	.	2.D/	e-	.	.	2.dd\	.	2.ff\	e-
.	.	.	.	.	.	.	.	.	.	.	.	.	.	.	.	4g\	.	.	.	.	.
.	.	.	.	.	.	.	.	.	.	.	.	.	.	.	.	1f	.	.	.	.	.
4E/	.	.	.	.	.	.	.	.	.	.	.	.	.	4E/	.	.	.	8ccny\L	.	4ee\	.
.	.	.	.	.	.	.	.	.	.	.	.	.	.	.	.	.	.	8b\J	.	.	.
!LO:TX:t=P:problem=kreska pseudotaktowa	!	!	!	!	!	!	!	!	!	!	!	!	!	!LO:TX:t=P:problem=kreska pseudotaktowa	!	!	!	!LO:TX:t=P:problem=kreska pseudotaktowa	!	!LO:TX:t=P:problem=kreska pseudotaktowa	!
2F/	.	.	.	.	.	.	.	.	.	.	.	.	.	2F/	.	.	.	2a\	.	2dd\	.
=24-	=24-	=24-	=24-	=24-	=24-	=24-	=24-	=24-	=24-	=24-	=24-	=24-	=24-	=24-	=24-	=24-	=24-	=24-	=24-	=24-	=24-
!	!	!	!	!	!	!LO:TX:t=P:problem=kreska pseudotaktowa	!	!LO:TX:t=P:problem=kreska pseudotaktowa	!	!LO:TX:t=P:problem=kreska pseudotaktowa	!	!LO:TX:t=P:problem=kreska pseudotaktowa	!	!	!	!	!	!	!	!	!
2G/	.	1.r	.	1.r	.	1.r	.	1.r	.	1.r	.	1.r	.	2G/	.	1e	.	2b-X\	.	1dd	.
1A	4	.	.	.	.	.	.	.	.	.	.	.	.	2.A/	-le-	.	.	2.a\	-le-	.	.
!	!	!	!	!	!	!	!	!	!	!	!	!	!	!	!	!	!	!	!	!LO:SIC:v:s=2cc#\	!
.	3	.	.	.	.	.	.	.	.	.	.	.	.	.	.	2e\	-ley-	.	.	2cc\	-ley-
!	!	!	!	!	!	!	!	!	!	!	!	!	!	!LO:TX:t=P:problem=kreska pseudotaktowa	!	!	!	!LO:TX:t=P:problem=kreska pseudotaktowa	!	!	!
.	.	.	.	.	.	.	.	.	.	.	.	.	.	4A/	-y-	.	.	4a\	-i-	.	.
*clefF4	*	*	*	*	*	*	*	*	*	*	*	*	*	*	*	*	*	*	*	*	*
=25-	=25-	=25-	=25-	=25-	=25-	=25-	=25-	=25-	=25-	=25-	=25-	=25-	=25-	=25-	=25-	=25-	=25-	=25-	=25-	=25-	=25-
!LO:TX:b:i:t=tut	!	!	!	!	!	!	!	!	!	!	!	!	!	!	!	!	!	!	!	!	!
!LO:TX:b:Bi:t=Chriſte	!	!	!	!	!	!	!	!	!	!	!	!	!	!LO:TX:t=P:problem=kreska pseudotaktowa	!	!	!	!	!	!	!
1D	.	2r	.	2r	.	2r	.	2r	.	2r	.	2r	.	1.D	-ſon	1f	-ſon	1a	-son	1dd	-ſon
*	*	*	*	*	*	*	*	*	*	*	*	*	*	*	*Xij	*	*Xij	*	*	*	*Xij
.	.	2F/	Chri-	2A/	Chri-	2D/	Chri-	2F/	Chri-	2A/	Chri-	2d\	Chri-	.	.	.	.	.	.	.	.
!	!	!	!	!	!	!LO:TX:t=P:problem=kreska pseudotaktowa	!	!LO:TX:t=P:problem=kreska pseudotaktowa	!	!LO:TX:t=P:problem=kreska pseudotaktowa	!	!LO:TX:t=P:problem=kreska pseudotaktowa	!	!	!	!	!	!LO:TX:t=P:problem=kreska pseudotaktowa	!	!LO:TX:t=P:problem=kreska pseudotaktowa	!
2D/	.	2F/	-ſte	2A/	-ſte	2D/	-ste	2F/	-ste	2A/	-ſte	2d\	-ste	.	.	2r	.	2r	.	2r	.
!	!	!	!	!	!	!	!	!	!	!	!	!	!	!	!	!	!	!LO:LB:g=original	!	!	!
=26-	=26-	=26-	=26-	=26-	=26-	=26-	=26-	=26-	=26-	=26-	=26-	=26-	=26-	=26-	=26-	=26-	=26-	=26-	=26-	=26-	=26-
!	!	!	!	!	!	!	!	!	!	!	!	!	!	!	!	!LO:TX:b:t=2	!	!	!	!	!
2.C/	.	1Gny	.	1c	.	2.C/	Chri-	1G	.	1c	.	1e	e-	0.r	.	0.r	.	0.r	.	0.r	.
4BB/	.	.	.	.	.	4BB/	.	.	.	.	.	.	.	.	.	.	.	.	.	.	.
!LO:TX:t=P:problem=kreska pseudotaktowa	!	!	!	!	!	!LO:TX:t=P:problem=kreska pseudotaktowa	!	!LO:TX:t=P:problem=kreska pseudotaktowa	!	!LO:TX:t=P:problem=kreska pseudotaktowa	!	!LO:TX:t=P:problem=kreska pseudotaktowa	!	!	!	!	!	!	!	!	!
!	!	!	!	!	!	!	!	!	!	!	!	!LO:LB:g=original	!	!	!	!	!	!	!	!	!
2AA/	6	2A/	e-	2c\	e-	2AA/	-ste	2A/	e-	2c\	e-	2f\	.	.	.	.	.	.	.	.	.
=27-	=27-	=27-	=27-	=27-	=27-	=27-	=27-	=27-	=27-	=27-	=27-	=27-	=27-	=27-	=27-	=27-	=27-	=27-	=27-	=27-	=27-
2BB-X/	.	1G	-le-	2d\	-le-	2BB-X/	e-	1G	-le-	2d\	-ley-	1f	-le-	.	.	.	.	.	.	.	.
!LO:TX:t=P:problem=kreska pseudotaktowa	!	!	!	!	!	!	!	!	!	!	!	!	!	!	!	!	!	!	!	!	!
1C	.	.	.	2.c\	-i-	2.C/	-le-	.	.	2.c\	.	.	.	.	.	.	.	.	.	.	.
!	!	!	!	!	!	!	!	!LO:TX:t=P:problem=kreska pseudotaktowa	!	!	!	!LO:TX:t=P:problem=kreska pseudotaktowa	!	!	!	!	!	!	!	!	!
!	!	!	!	!	!	!	!	!LO:LB:g=original	!	!	!	!	!	!	!	!	!	!	!	!	!
.	.	2G/	-i-	.	.	.	.	2G/	-i-	.	.	2e\	-i-	.	.	.	.	.	.	.	.
!	!	!	!	!	!	!LO:TX:t=P:problem=kreska pseudotaktowa	!	!	!	!	!	!	!	!	!	!	!	!	!	!	!
.	.	.	.	4c\	-son	4C/	-ij-	.	.	4c\	.	.	.	.	.	.	.	.	.	.	.
=28-	=28-	=28-	=28-	=28-	=28-	=28-	=28-	=28-	=28-	=28-	=28-	=28-	=28-	=28-	=28-	=28-	=28-	=28-	=28-	=28-	=28-
!	!	!LO:N:vis=1	!	!	!	!LO:TX:t=P:problem=kreska pseudotaktowa	!	!	!	!	!	!	!	!	!	!	!	!	!	!	!
1FF	.	1.A	-son	1c	.	1.FF	-son	1A	-son	1c	-ſon	1f	-son	2r	.	2r	.	2r	.	2r	.
.	.	.	.	.	.	.	.	.	.	.	.	.	.	2F/	Chri-	2f\	Chri-	2a\	Chri-	2cc\	Chri-
!LO:TX:b:i:t=a4	!	!	!	!	!	!	!	!LO:TX:t=P:problem=kreska pseudotaktowa	!	!LO:TX:t=P:problem=kreska pseudotaktowa	!	!	!	!LO:TX:t=P:problem=kreska pseudotaktowa	!	!LO:TX:t=P:problem=kreska pseudotaktowa	!	!LO:TX:t=P:problem=kreska pseudotaktowa	!	!LO:TX:t=P:problem=kreska pseudotaktowa	!
2F\	.	.	.	2r	.	.	.	2r	.	2r	.	2r	.	2F/	-ſte	2f\	-ſte	2a\	-ſte	2cc\	-ſte
*clefC4	*	*	*	*	*	*	*	*	*	*	*	*	*	*	*	*	*	*	*	*	*
!LO:LB:g=original	!	!	!	!	!	!	!	!	!	!	!	!	!	!	!	!LO:LB:g=original	!	!	!	!	!
=29-	=29-	=29-	=29-	=29-	=29-	=29-	=29-	=29-	=29-	=29-	=29-	=29-	=29-	=29-	=29-	=29-	=29-	=29-	=29-	=29-	=29-
2.c\	.	0.r	.	0.r	.	0.r	.	0.r	.	0.r	.	0.r	.	2.c\	e-	1e	.	2.gny/	e-	2.cc\	e-
4Bny\	.	.	.	.	.	.	.	.	.	.	.	.	.	4Bny\	.	.	.	8a\L	.	4dd\	.
.	.	.	.	.	.	.	.	.	.	.	.	.	.	.	.	.	.	8bny\J	.	.	.
!LO:TX:t=P:problem=kreska pseudotaktowa	!	!	!	!	!	!	!	!	!	!	!	!	!	!LO:TX:t=P:problem=kreska pseudotaktowa	!	!LO:TX:t=P:problem=kreska pseudotaktowa	!	!LO:TX:t=P:problem=kreska pseudotaktowa	!	!LO:TX:t=P:problem=kreska pseudotaktowa	!
2A\	.	.	.	.	.	.	.	.	.	.	.	.	.	2A\	.	2a\	e-	2cc\	.	2ee\	.
=30-	=30-	=30-	=30-	=30-	=30-	=30-	=30-	=30-	=30-	=30-	=30-	=30-	=30-	=30-	=30-	=30-	=30-	=30-	=30-	=30-	=30-
2d\	.	.	.	.	.	.	.	.	.	.	.	.	.	2d\	.	1a	-le-	2dd\	.	2ff\	.
!LO:TX:t=P:problem=kreska pseudotaktowa	!	!	!	!	!	!	!	!	!	!	!	!	!	!	!	!	!	!	!	!	!
1e	#	.	.	.	.	.	.	.	.	.	.	.	.	2.e\	-le-	.	.	2.b\	-le-	2.ee\	-le-
.	.	.	.	.	.	.	.	.	.	.	.	.	.	.	.	2g#X\	-y-	.	.	.	.
.	.	.	.	.	.	.	.	.	.	.	.	.	.	4e\	-y-	.	.	4b\	-i-	4ee\	-y-
!	!	!	!	!	!	!	!	!	!	!	!	!	!	!LO:LB:g=original	!	!	!	!	!	!LO:LB:g=original	!
=31-	=31-	=31-	=31-	=31-	=31-	=31-	=31-	=31-	=31-	=31-	=31-	=31-	=31-	=31-	=31-	=31-	=31-	=31-	=31-	=31-	=31-
!	!	!	!	!	!	!	!	!	!	!	!	!	!	!LO:TX:t=P:problem=kreska pseudotaktowa	!	!	!	!	!	!	!
2A/	.	2r	.	2r	.	2r	.	2r	.	2r	.	2r	.	1.A	-ſon	1a	-ſon	2cc\	-ſon	2ee\	-ſon
*clefF4	*	*	*	*	*	*	*ij	*	*ij	*	*	*	*ij	*	*	*	*	*	*	*	*
!LO:TX:b:i:t=tutti	!	!	!	!	!	!	!	!	!	!	!	!	!	!	!	!	!	!	!	!	!
2D/	#	2A/	.	2d\	ky-	2D/	Chri-	2A/	Chri-	2d\	Ky-	2f\	Chri-	.	.	.	.	2r	.	2r	.
!	!	!	!	!	!	!LO:TX:t=P:problem=kreska pseudotaktowa	!	!LO:TX:t=P:problem=kreska pseudotaktowa	!	!LO:TX:t=P:problem=kreska pseudotaktowa	!	!LO:TX:t=P:problem=kreska pseudotaktowa	!	!	!	!LO:TX:t=P:problem=kreska pseudotaktowa	!	!LO:TX:t=P:problem=kreska pseudotaktowa	!	!LO:TX:t=P:problem=kreska pseudotaktowa	!
2D/	.	2A/	.	2d\	-rie	2D/	-ste	2A/	-ste	2d\	-ri-	2f\	-ste	.	.	2r	.	2r	.	2r	.
=32-	=32-	=32-	=32-	=32-	=32-	=32-	=32-	=32-	=32-	=32-	=32-	=32-	=32-	=32-	=32-	=32-	=32-	=32-	=32-	=32-	=32-
!	!	!	!	!	!	!	!	!LO:TX:t=P:problem=♭ above	!	!	!	!	!	!	!	!	!	!	!	!	!
2.GG/	.	1B-X	.	2.d\	e-	2.GG/	Chri-	1B-X	.	2.d\	-e	2.g\	e-	0.r	.	0.r	.	0.r	.	0.r	.
4AA/	.	.	.	4c\	.	4AA/	.	.	.	4c\	.	8f\L	.	.	.	.	.	.	.	.	.
.	.	.	.	.	.	.	.	.	.	.	.	8e\J	.	.	.	.	.	.	.	.	.
!LO:TX:t=P:problem=kreska pseudotaktowa	!	!	!	!	!	!LO:TX:t=P:problem=kreska pseudotaktowa	!	!	!	!LO:TX:t=P:problem=kreska pseudotaktowa	!	!LO:TX:t=P:problem=kreska pseudotaktowa	!	!	!	!	!	!	!	!	!
2BB-X/	.	2F/	.	2B-X\	.	2BB-X/	-ste	2F/	e-	2B-X\	.	2d\	.	.	.	.	.	.	.	.	.
!	!	!LO:LB:g=original	!	!	!	!	!	!	!	!	!	!	!	!	!	!	!	!	!	!	!
=33-	=33-	=33-	=33-	=33-	=33-	=33-	=33-	=33-	=33-	=33-	=33-	=33-	=33-	=33-	=33-	=33-	=33-	=33-	=33-	=33-	=33-
!	!	!	!	!	!	!	!	!LO:TX:t=P:problem=♭ above	!	!	!	!	!	!LO:TX:t=P:problem=kreska pseudotaktowa	!	!	!	!LO:TX:t=P:problem=kreska pseudotaktowa	!	!	!
2GG/	.	2B-X\	.	1d	.	2GG/	e-	2B-X\	-le-	1d	e-	2g\	.	.	.	.	.	.	.	.	.
1AA	4	2.A/	.	.	.	2.AA/	-le-	2.A/	.	.	.	2.e\	-le-	.	.	.	.	.	.	.	.
!	!	!	!	!	!	!	!	!	!	!LO:SIC:v:s=2c#\	!	!	!	!	!	!	!	!	!	!	!
!	!	!	!	!LO:TX:b:t=P:problem=# below	!	!	!	!	!	!LO:TX:t=P:problem=kreska pseudotaktowa	!	!	!	!	!	!	!	!	!	!	!
.	3	.	.	2c#X\	-lei-	.	.	.	.	2c\	-ley-	.	.	.	.	.	.	.	.	.	.
!	!	!	!	!	!	!	!	!LO:TX:t=P:problem=kreska pseudotaktowa	!	!	!	!LO:TX:t=P:problem=kreska pseudotaktowa	!	!	!	!	!	!	!	!	!
.	.	4A/	.	.	.	4AA/	-ij-	4A/	-i-	.	.	4e\	-i-	.	.	.	.	.	.	.	.
=34-	=34-	=34-	=34-	=34-	=34-	=34-	=34-	=34-	=34-	=34-	=34-	=34-	=34-	=34-	=34-	=34-	=34-	=34-	=34-	=34-	=34-
!LO:TX:b:i:t=Rip&colon;	!	!	!	!	!	!	!	!	!	!	!	!LO:TX:b:t=P:problem=# below	!	!	!	!LO:TX:t=P:problem=# above	!	!	!	!	!
2.D/	#	1A	.	1d	-son	1D	-son	1A	-son	1d	-ſon	1f#X	-son	2.d\	Ky-	2.f#X\	Ky-	2.a\	Ky-	2.dd\	Ky-
*	*	*	*	*	*	*	*Xij	*	*Xij	*	*	*	*Xij	*	*	*	*	*	*	*	*
4D/	.	.	.	.	.	.	.	.	.	.	.	.	.	4d\	-ri-	4f#\	-ri-	4a\	-ri-	4dd\	-ri-
!	!	!	!	!	!	!LO:TX:t=P:problem=kreska pseudotaktowa	!	!LO:TX:t=P:problem=kreska pseudotaktowa	!	!LO:TX:t=P:problem=kreska pseudotaktowa	!	!	!	!LO:TX:t=P:problem=kreska pseudotaktowa	!	!LO:TX:t=P:problem=kreska pseudotaktowa	!	!LO:TX:t=P:problem=kreska pseudotaktowa	!	!LO:TX:t=P:problem=kreska pseudotaktowa	!
2D/	.	2r	.	2r	.	2r	.	2r	.	2r	.	2r	.	2d\	-e	2f#\	-e	2a\	-e	2dd\	-e
!	!	!	!	!	!	!LO:LB:g=original	!	!	!	!LO:LB:g=original	!	!	!	!	!	!	!	!	!	!	!
=35-	=35-	=35-	=35-	=35-	=35-	=35-	=35-	=35-	=35-	=35-	=35-	=35-	=35-	=35-	=35-	=35-	=35-	=35-	=35-	=35-	=35-
*	*	*	*	*	*	*	*	*	*	*	*	*	*	*	*	*	*ij	*	*ij	*	*ij
1GG	.	2.Bny\	Ky-	2.d\	ky-	2.G\	ky-	2.Bny\	Ky-	2.d\	Ky-	2.g\	Ky-	2G/	e-	2gny\	Ky-	2b\	Ky-	2dd\	Ky-
.	.	.	.	.	.	.	.	.	.	.	.	.	.	2G/	-ley-	2g\	-ri-	2b\	-ri-	2dd\	-ri-
.	.	4B\	-ri-	4d\	-ri-	4G\	-ri-	4B\	-ri-	4d\	-ri-	4g\	-ri-	.	.	.	.	.	.	.	.
!LO:TX:t=P:problem=kreska pseudotaktowa	!	!	!	!	!	!LO:TX:t=P:problem=kreska pseudotaktowa	!	!LO:TX:t=P:problem=kreska pseudotaktowa	!	!LO:TX:t=P:problem=kreska pseudotaktowa	!	!LO:TX:t=P:problem=kreska pseudotaktowa	!	!LO:TX:t=P:problem=kreska pseudotaktowa	!	!LO:TX:t=P:problem=kreska pseudotaktowa	!	!LO:TX:t=P:problem=kreska pseudotaktowa	!	!LO:TX:t=P:problem=kreska pseudotaktowa	!
2GG/	.	2B\	-e	2d\	-e	2G\	-e	2B\	-e	2d\	-e	2g\	-e	2G/	-ſon	2g\	-e	2b\	-e	2dd\	-e
*	*	*	*	*	*	*	*	*	*	*	*	*	*	*	*	*	*Xij	*	*	*	*Xij
=36-	=36-	=36-	=36-	=36-	=36-	=36-	=36-	=36-	=36-	=36-	=36-	=36-	=36-	=36-	=36-	=36-	=36-	=36-	=36-	=36-	=36-
*	*	*	*	*	*	*	*	*	*	*	*	*	*	*	*ij	*	*	*	*	*	*
1C	.	2e\	e-	2cny\	e-	2C/	ky-	2e\	e-	2c\	e-	2g\	e-	2.c\	Ky-	2.g\	e-	2.cc\	Ky-	2.ee\	e-
.	.	2e\	-le-	2c\	-le-	2C/	-ri-	2e\	-lei-	2c\	-ley-	2g\	-lei-	.	.	.	.	.	.	.	.
.	.	.	.	.	.	.	.	.	.	.	.	.	.	4c\	-ri-	4g\	-ley-	4cc\	-ri-	4ee\	-ley-
!	!	!	!	!	!	!LO:TX:t=P:problem=kreska pseudotaktowa	!	!LO:TX:t=P:problem=kreska pseudotaktowa	!	!LO:TX:t=P:problem=kreska pseudotaktowa	!	!LO:TX:t=P:problem=kreska pseudotaktowa	!	!LO:TX:t=P:problem=kreska pseudotaktowa	!	!LO:TX:t=P:problem=kreska pseudotaktowa	!	!LO:TX:t=P:problem=kreska pseudotaktowa	!	!LO:TX:t=P:problem=kreska pseudotaktowa	!
2C/	.	2e\	-i-	2c\	-i-	2C/	-e	2e\	-son	2c\	-ſon	2g\	-son	2c\	-e	2g\	-ſon	2cc\	-e	2ee\	-ſon
*	*	*	*	*	*	*	*	*	*	*	*	*	*	*	*	*	*	*	*Xij	*	*
!	!	!	!	!	!	!	!	!	!	!	!	!	!	!	!	!	!	!LO:LB:g=original	!	!	!
=37-	=37-	=37-	=37-	=37-	=37-	=37-	=37-	=37-	=37-	=37-	=37-	=37-	=37-	=37-	=37-	=37-	=37-	=37-	=37-	=37-	=37-
*	*	*	*	*	*	*	*ij	*	*ij	*	*ij	*	*	*	*	*	*ij	*	*	*	*ij
1FF	.	2.A/	-son	2.c\	-son	2.F\	ky-	2.A/	Ky-	2.c\	Ky-	2.fny\	Ky-	2F/	e-	2a\	e-	2cc\	e-	2ff\	e-
.	.	.	.	.	.	.	.	.	.	.	.	.	.	2F/	-ley-	2a\	-ley-	2cc\	-lei-	2ff\	-ley-
.	.	4A/	.	4c\	.	4F\	-ri-	4A/	-ri-	4c\	-ri-	4f\	-ri-	.	.	.	.	.	.	.	.
!LO:TX:t=P:problem=kreska pseudotaktowa	!	!	!	!	!	!LO:TX:t=P:problem=kreska pseudotaktowa	!	!LO:TX:t=P:problem=kreska pseudotaktowa	!	!LO:TX:t=P:problem=kreska pseudotaktowa	!	!LO:TX:t=P:problem=kreska pseudotaktowa	!	!	!	!LO:TX:t=P:problem=kreska pseudotaktowa	!	!LO:TX:t=P:problem=kreska pseudotaktowa	!	!LO:TX:t=P:problem=kreska pseudotaktowa	!
2FF/	.	2A/	.	2c\	.	2F\	-e	2A/	-e	2c\	-e	2f\	-e	2F/	-ſon	2a\	-ſon	2cc\	-son	2ff\	-ſon
!	!	!	!	!	!	!	!	!	!	!	!	!LO:LB:g=original	!	!	!	!	!	!	!	!	!
=38-	=38-	=38-	=38-	=38-	=38-	=38-	=38-	=38-	=38-	=38-	=38-	=38-	=38-	=38-	=38-	=38-	=38-	=38-	=38-	=38-	=38-
1BB-X	.	2B-X\	.	2d\	.	2BB-X/	ky-	2B-X\	e-	2d\	e-	2f\	e-	2.B-X\	Ky-	2.fny\	e-	2.b-X\	Ky-	2.dd\	e-
.	.	2B-\	.	2d\	.	2BB-/	-ri-	2B-\	-lei-	2d\	-ley-	2f\	-lei-	.	.	.	.	.	.	.	.
.	.	.	.	.	.	.	.	.	.	.	.	.	.	4B-\	-ri-	4f\	-ley-	4b-\	-ri-	4dd\	-ley-
!	!	!	!	!	!	!LO:TX:t=P:problem=kreska pseudotaktowa	!	!	!	!LO:TX:t=P:problem=kreska pseudotaktowa	!	!LO:TX:t=P:problem=kreska pseudotaktowa	!	!LO:TX:t=P:problem=kreska pseudotaktowa	!	!	!	!LO:TX:t=P:problem=kreska pseudotaktowa	!	!LO:TX:t=P:problem=kreska pseudotaktowa	!
2BB-/	.	2B-\	.	2d\	.	2BB-/	-e	2B-\	-son	2d\	-ſon	2d\	-son	2B-X\	-e	2f\	-ſon	2b-\	-e	2dd\	-ſon
*	*	*	*	*	*	*	*	*	*Xij	*	*	*	*	*	*	*	*	*	*	*	*
!	!	!	!	!LO:LB:g=original	!	!	!	!LO:LB:g=original	!	!	!	!	!	!	!	!	!	!	!	!	!
=39-	=39-	=39-	=39-	=39-	=39-	=39-	=39-	=39-	=39-	=39-	=39-	=39-	=39-	=39-	=39-	=39-	=39-	=39-	=39-	=39-	=39-
1GG	.	2.d\	.	2.B-X\	.	2.GG/	ky-	2.d\	Ky-	2.B-X\	Ky-	2.g\	Ky-	2B-\	e-	1g	e-	2b-X\	e-	2dd\	e-
!	!	!	!	!	!	!	!	!	!	!	!	!	!	!LO:TX:t=P:problem=kreska pseudotaktowa	!	!	!	!	!	!	!
.	.	.	.	.	.	.	.	.	.	.	.	.	.	1G	-ley-	.	.	2b-\	-le-	2dd\	-ley-
.	.	4d\	.	4B-\	.	4GG/	-ri-	4d\	-ri-	4B-\	-ri-	4g\	-ri-	.	.	.	.	.	.	.	.
!LO:TX:t=P:problem=kreska pseudotaktowa	!	!	!	!	!	!LO:TX:t=P:problem=kreska pseudotaktowa	!	!	!	!LO:TX:t=P:problem=kreska pseudotaktowa	!	!	!	!	!	!	!	!LO:TX:t=P:problem=kreska pseudotaktowa	!	!LO:TX:t=P:problem=kreska pseudotaktowa	!
2GG/	.	2.d\	.	2Gny/	.	2GG/	-e	2.d\	-e	2Gny/	-e	4d\	-e	.	.	2g\	-ley-	2b-\	-i-	2dd\	-ſon
*	*	*	*	*	*	*	*Xij	*	*	*	*	*	*	*	*	*	*	*	*	*	*
!	!	!	!	!	!	!	!	!	!	!	!	!LO:TX:t=P:problem=kreska pseudotaktowa	!	!	!	!	!	!	!	!	!
.	.	.	.	.	.	.	.	.	.	.	.	4e\	.	.	.	.	.	.	.	.	.
=40-	=40-	=40-	=40-	=40-	=40-	=40-	=40-	=40-	=40-	=40-	=40-	=40-	=40-	=40-	=40-	=40-	=40-	=40-	=40-	=40-	=40-
!	!	!	!	!	!	!	!	!	!	!LO:TX:t=P:problem=kreska pseudotaktowa	!	!	!	!	!	!	!	!	!	!	!
1D	.	.	.	1.A	.	1.D	e-	.	.	1.A	e-	2.f\	e-	2.D/	-ſon	4f\	-ſon	1a	-son	4dd\	e-
.	.	8c\L	.	.	.	.	.	8c\L	e-	.	.	.	.	.	.	4g\	.	.	.	4ee\	.
.	.	8Bny\J	.	.	.	.	.	8Bny\J	.	.	.	.	.	.	.	.	.	.	.	.	.
.	.	2.A/	.	.	.	.	.	2.A/	.	.	.	.	.	.	.	4a\	.	.	.	4ff\	.
.	.	.	.	.	.	.	.	.	.	.	.	4g\	.	4E/	.	4g\	.	.	.	4ee\	.
!	!	!	!	!	!	!	!	!	!	!	!	!	!	!	!	!	!	!LO:TX:t=P:problem=kreska pseudotaktowa	!	!LO:TX:t=P:problem=kreska pseudotaktowa	!
2r	.	.	.	.	.	.	.	.	.	.	.	2.a\	.	4F/	.	2f\	.	2r	.	2dd\	.
!	!	!	!	!	!	!	!	!LO:TX:t=P:problem=kreska pseudotaktowa	!	!	!	!	!	!LO:TX:t=P:problem=kreska pseudotaktowa	!	!	!	!	!	!	!
.	.	4F/	.	.	.	.	.	4F/	.	.	.	.	.	4D/	.	.	.	.	.	.	.
=41-	=41-	=41-	=41-	=41-	=41-	=41-	=41-	=41-	=41-	=41-	=41-	=41-	=41-	=41-	=41-	=41-	=41-	=41-	=41-	=41-	=41-
1.AA	4	1A	.	4A\	.	1AA	-le-	1A	-le-	4A\	-le-	.	.	1A	e-	1e	e-	1a	e-	2dd\	.
.	.	.	.	4Bny\	.	.	.	.	.	4Bny\	.	8g\L	.	.	.	.	.	.	.	.	.
.	.	.	.	.	.	.	.	.	.	.	.	8f\J	.	.	.	.	.	.	.	.	.
!	!	!	!	!LO:TX:t=P:problem=# above	!	!	!	!	!	!	!	!	!	!	!	!	!	!	!	!LO:TX:t=P:problem=# above	!
.	.	.	.	4c#X\	.	.	.	.	.	4c#X\	.	2e\	-le-	.	.	.	.	.	.	2.cc#X\	-le-
.	.	.	.	4d\	.	.	.	.	.	4d\	.	.	.	.	.	.	.	.	.	.	.
!	!	!	!	!LO:TX:b:t=P:problem=# below	!	!LO:TX:t=P:problem=kreska pseudotaktowa	!	!	!	!LO:TX:t=P:problem=kreska pseudotaktowa	!	!LO:TX:t=P:problem=kreska pseudotaktowa	!	!	!	!	!	!	!	!	!
.	3	2A/	.	2c#Xi\	.	2AA/	-ij-	2A/	-i-	2c#Xi\	-y-	2e\	-i-	2A/	-ley-	2e\	-ley-	2a\	-lei-	.	.
.	.	.	.	.	.	.	.	.	.	.	.	.	.	.	.	.	.	.	.	4cc#\	-y-
=42-	=42-	=42-	=42-	=42-	=42-	=42-	=42-	=42-	=42-	=42-	=42-	=42-	=42-	=42-	=42-	=42-	=42-	=42-	=42-	=42-	=42-
1.D;;	.	1.Fl;;	.	1.A;;	.	1.Dl;;	-son	1.Fl;;	-son	1.A;;	-ſon	1.d;;	-son	1.Dl	-ſon	1.f;	-ſon	1.a;;	-son.	1.dd;;	-ſon
*	*	*	*	*	*	*	*	*	*	*	*Xij	*	*	*	*Xij	*	*Xij	*	*	*	*Xij
==	==	==	==	==	==	==	==	==	==	==	==	==	==	==	==	==	==	==	==	==	==
*-	*-	*-	*-	*-	*-	*-	*-	*-	*-	*-	*-	*-	*-	*-	*-	*-	*-	*-	*-	*-	*-
!!!system-decoration: [g1][g2][(str)][klav]
!!!RDF**kern: < = below
!!!RDF**kern: l = terminal long
!!!ENC: Berenika Jozajtis
!!!END: 2024-06-09
!!!EED: Andrzej Kubiczek
!!!EEV: 2025-03-06
